static/logos/medium-wordmark-color.svg

<svg width="100" height="16" viewBox="0 0 100 16" fill="none" xmlns="http://www.w3.org/2000/svg">
<g clip-path="url(#clip0_1_2045)">
<path d="M15.0579 7.77327C15.0579 11.9231 11.7178 15.3036 7.568 15.3036C3.41821 15.3036 0.078125 11.9231 0.078125 7.77327C0.078125 3.62347 3.41821 0.242908 7.568 0.242908C11.7178 0.242908 15.0579 3.62347 15.0579 7.77327ZM23.2765 7.77327C23.2765 11.6802 21.5964 14.8583 19.5316 14.8583C17.4668 14.8583 15.7866 11.6802 15.7866 7.77327C15.7866 3.86639 17.4668 0.68825 19.5316 0.68825C21.5964 0.68825 23.2765 3.86639 23.2765 7.77327ZM26.6368 7.77327C26.6368 11.2753 26.0498 14.1295 25.3211 14.1295C24.5923 14.1295 24.0053 11.2753 24.0053 7.77327C24.0053 4.27125 24.5923 1.417 25.3211 1.417C26.0498 1.417 26.6368 4.27125 26.6368 7.77327ZM47.2644 0.890679H47.2846V0.728738H43.0336L39.0862 10.0202L35.1389 0.728738H30.564V0.890679H30.5842C31.3534 1.07287 31.7583 1.33603 31.7583 2.2672V13.2996C31.7583 14.251 31.3534 14.4939 30.5842 14.6761H30.564V14.838H33.6814V14.6761H33.6611C32.8919 14.4939 32.4871 14.2308 32.4871 13.2996V2.89473L37.568 14.838H37.8514L43.0741 2.57084V13.5627C43.0134 14.3117 42.6085 14.5344 41.9203 14.6963H41.9V14.8583H47.3251V14.6963H47.3049C46.5964 14.5344 46.1915 14.3117 46.1308 13.5627V2.24695C46.1105 1.33603 46.4951 1.07287 47.2644 0.890679ZM49.7543 8.19837C49.8352 6.21457 50.564 4.77732 51.7583 4.75708C52.1227 4.75708 52.4263 4.87853 52.6692 5.12145C53.1753 5.60728 53.4182 6.65991 53.3777 8.19837H49.7543ZM49.6935 8.76517H56.0498V8.74493C56.0296 7.22671 55.5842 6.05262 54.7543 5.24291C54.0255 4.5344 52.9324 4.14979 51.7988 4.14979H51.7785C51.1915 4.14979 50.4628 4.29149 49.9567 4.55465C49.3696 4.8178 48.8433 5.24291 48.4182 5.76922C47.73 6.61942 47.3049 7.79351 47.2036 9.08906C47.2036 9.12954 47.2036 9.17003 47.2036 9.21052C47.2036 9.251 47.2036 9.29149 47.2036 9.33197C47.2036 9.51416 47.1834 9.69635 47.2036 9.87853C47.2644 12.834 48.8636 15.2024 51.6976 15.2024C54.1875 15.2024 55.6449 13.3806 55.9891 10.9312L55.8069 10.8704C55.1794 12.1862 54.0255 12.9757 52.73 12.8745C50.9283 12.7328 49.5721 10.9312 49.6935 8.76517ZM63.2158 12.7733C63.0134 13.2591 62.568 13.5425 61.981 13.5425C61.3939 13.5425 60.8676 13.1376 60.483 12.4089C60.0781 11.6194 59.8555 10.5263 59.8555 9.23076C59.8555 6.51821 60.7057 4.75708 62.0012 4.75708C62.5478 4.75708 62.9729 5.02023 63.1956 5.50606V12.7733H63.2158ZM67.4466 14.7166C66.6773 14.5344 66.2725 14.251 66.2725 13.2591V0.0809631L61.5559 1.47773V1.63967H61.5761C62.2239 1.57894 62.6692 1.68015 62.9324 1.92307C63.1348 2.10525 63.236 2.38865 63.236 2.79351V4.59513C62.7704 4.29149 62.2239 4.14979 61.5559 4.14979C60.1996 4.14979 58.9445 4.71659 58.0538 5.76922C57.1227 6.86234 56.6166 8.34007 56.6166 10.0607C56.6166 13.1376 58.1348 15.2024 60.3818 15.2024C61.6976 15.2024 62.7502 14.4737 63.236 13.2591V14.8988H67.4668V14.7368L67.4466 14.7166ZM71.4749 1.86234C71.4749 0.910924 70.7462 0.182178 69.7947 0.182178C68.8433 0.182178 68.0943 0.931167 68.0943 1.86234C68.0943 2.81376 68.8433 3.5425 69.7947 3.5425C70.7664 3.56274 71.4749 2.834 71.4749 1.86234ZM72.5883 14.7166C71.819 14.5344 71.4142 14.251 71.4142 13.2591V4.17003L67.1834 5.38461V5.54655H67.2036C68.1146 5.62752 68.3777 5.95141 68.3777 7.00404V14.8583H72.6085V14.6963L72.5883 14.7166ZM83.4385 14.7166C82.6692 14.5344 82.2644 14.251 82.2644 13.2591V4.17003L78.236 5.34412V5.50606H78.2563C79.0053 5.58703 79.2279 5.91092 79.2279 6.9838V12.753C78.985 13.2389 78.5194 13.5425 77.9324 13.5627C77.0215 13.5627 76.5154 12.9352 76.5154 11.8219V4.19027L72.2846 5.40485V5.56679H72.3049C73.2158 5.64776 73.479 5.97165 73.479 7.02428V11.8826C73.479 12.2267 73.4992 12.5506 73.5599 12.8947L73.6409 13.2186C74.0053 14.4939 74.9364 15.1822 76.4142 15.1822C77.6692 15.1822 78.7624 14.4129 79.2279 13.1984V14.8785H83.4587L83.4385 14.7166ZM99.896 14.8785V14.7166H99.8757C99.0255 14.5142 98.7016 14.1498 98.7016 13.4008V7.22671C98.7016 5.30363 97.6287 4.14979 95.8069 4.14979C94.4911 4.14979 93.3777 4.91902 92.9526 6.09311C92.6085 4.83805 91.6368 4.14979 90.1794 4.14979C88.9041 4.14979 87.9122 4.8178 87.4871 5.95141V4.17003L83.2563 5.34412V5.50606H83.2765C84.1875 5.58703 84.4506 5.91092 84.4506 6.96355V14.8785H88.398V14.7166H88.3777C87.7097 14.5546 87.4871 14.2712 87.4871 13.5223V6.43724C87.6692 6.01214 88.0134 5.52631 88.7219 5.52631C89.5923 5.52631 90.0579 6.13359 90.0579 7.32793V14.8583H94.0053V14.6963H93.985C93.317 14.5344 93.0943 14.251 93.0943 13.502V7.20647C93.0943 6.96355 93.0741 6.74088 93.0336 6.49797C93.2158 6.05262 93.6004 5.50606 94.3292 5.50606C95.2198 5.50606 95.6652 6.09311 95.6652 7.30768V14.838H99.896V14.8785Z" fill="black"/>
</g>
<defs>
<clipPath id="clip0_1_2045">
<rect width="100" height="15.3846" fill="white"/>
</clipPath>
</defs>
</svg>

<svg xmlns="http://www.w3.org/2000/svg" width="400" height="64" fill="none" viewBox="0 0 100 16"><g clip-path="url(#a)"><path fill="#000" d="M15.058 7.773c0 4.15-3.34 7.53-7.49 7.53s-7.49-3.38-7.49-7.53 3.34-7.53 7.49-7.53 7.49 3.38 7.49 7.53Zm8.218 0c0 3.907-1.68 7.085-3.744 7.085-2.065 0-3.745-3.178-3.745-7.085S17.467.688 19.532.688c2.064 0 3.744 3.178 3.744 7.085Zm3.36 0c0 3.502-.586 6.357-1.315 6.357s-1.316-2.855-1.316-6.357c0-3.502.587-6.356 1.316-6.356.729 0 1.316 2.854 1.316 6.356ZM47.265.891h.02V.729h-4.25l-3.948 9.291L35.14.73h-4.575V.89h.02c.77.182 1.174.445 1.174 1.376V13.3c0 .951-.405 1.194-1.174 1.376h-.02v.162h3.117v-.162h-.02c-.77-.182-1.174-.445-1.174-1.376V2.895l5.081 11.943h.283l5.223-12.267v10.992c-.06.749-.465.971-1.154 1.133h-.02v.162h5.425v-.162h-.02c-.709-.162-1.114-.384-1.174-1.133V2.247c-.02-.911.364-1.174 1.133-1.356Zm2.49 7.307c.081-1.983.81-3.42 2.004-3.44.365 0 .668.12.911.363.506.486.75 1.539.709 3.077h-3.624Zm-.06.567h6.356v-.02c-.02-1.518-.466-2.692-1.296-3.502-.728-.709-1.822-1.093-2.955-1.093h-.02c-.588 0-1.316.141-1.822.405a4.23 4.23 0 0 0-1.539 1.214c-.688.85-1.113 2.025-1.214 3.32v.243c0 .182-.02.364 0 .547.06 2.955 1.66 5.323 4.494 5.323 2.49 0 3.947-1.821 4.291-4.27l-.182-.062c-.628 1.316-1.782 2.106-3.077 2.005-1.802-.142-3.158-1.944-3.036-4.11Zm13.522 4.008c-.203.486-.648.77-1.235.77-.587 0-1.113-.405-1.498-1.134-.405-.79-.627-1.883-.627-3.178 0-2.713.85-4.474 2.145-4.474.547 0 .972.263 1.195.75v7.266h.02Zm4.23 1.944c-.769-.183-1.174-.466-1.174-1.458V.081l-4.716 1.397v.162h.02c.648-.061 1.093.04 1.356.283.203.182.304.466.304.87v1.802c-.466-.304-1.012-.445-1.68-.445a4.528 4.528 0 0 0-3.502 1.62c-.931 1.092-1.437 2.57-1.437 4.29 0 3.078 1.518 5.142 3.765 5.142 1.316 0 2.368-.728 2.854-1.943v1.64h4.23v-.162l-.02-.02Zm4.029-12.855c0-.951-.729-1.68-1.68-1.68-.952 0-1.7.75-1.7 1.68 0 .952.748 1.68 1.7 1.68.971.02 1.68-.708 1.68-1.68Zm1.113 12.855c-.769-.183-1.174-.466-1.174-1.458V4.17l-4.23 1.215v.162h.02c.91.08 1.174.404 1.174 1.457v7.854h4.23v-.162l-.02.02Zm10.85 0c-.769-.183-1.174-.466-1.174-1.458V4.17l-4.028 1.174v.162h.02c.75.081.972.405.972 1.478v5.769c-.243.486-.709.79-1.296.81-.91 0-1.417-.628-1.417-1.741V4.19l-4.23 1.215v.162h.02c.91.08 1.174.405 1.174 1.457v4.859c0 .344.02.668.08 1.012l.082.324c.364 1.275 1.295 1.963 2.773 1.963 1.255 0 2.348-.77 2.814-1.984v1.68h4.23l-.02-.161Zm16.458.162v-.162h-.02c-.85-.203-1.174-.567-1.174-1.316V7.227c0-1.923-1.073-3.077-2.895-3.077-1.316 0-2.43.769-2.854 1.943-.344-1.255-1.316-1.943-2.774-1.943-1.275 0-2.267.668-2.692 1.801V4.17l-4.23 1.174v.162h.02c.91.081 1.174.405 1.174 1.458v7.915h3.947v-.162h-.02c-.668-.162-.89-.446-.89-1.195V6.437c.181-.425.525-.91 1.234-.91.87 0 1.336.607 1.336 1.8v7.531h3.947v-.162h-.02c-.668-.162-.89-.445-.89-1.194V7.206c0-.242-.02-.465-.061-.708.182-.445.566-.992 1.295-.992.89 0 1.336.587 1.336 1.802v7.53h4.231v.04Z"/></g><defs><clipPath id="a"><path fill="#fff" d="M0 0h100v15.385H0z"/></clipPath></defs></svg>
